X:1
T:James Gibb editions
T:Ich beuge meine Knie - Schütz
T:#
%%score [ 1 2 ] 3
L:1/8
Q:1/4=108
M:4/4
K:C
V:1 bass nm="Bass I"
V:2 bass nm="Bass II"
V:3 bass nm="Continuo"
V:1
"^Ephesians 3:14-17a""^Heinrich Schütz\n(1585-1672)""^Ich beuge meine Knie, SWV 319" G,8 | %1
w: Ich|
 E,4 B,,4 | C,4 D,4 | G,,8 | G,2 G,G, C4 | B,2 A,4 G,2 | F,2 E,2 D,2 C,2 | G,8 | C,8 | z8 | %10
w: beu- ge|mei- ne|Knie|ge- gen dem Va-|ter un- sers|Her- ren Je- su|Chri-|sti,||
[M:4/4] G,8 | E,4 B,,4 | C,8 | D,8 | G,,8 | z8 | z8 | z8 | z8 | z4 A,,2 A,,A,, | D,4 C,2 B,,2- | %21
w: ich|beu- ge|mei-|ne|Knie|||||ge- gen dem|Va- ter un\-|
 B,,2 C,2 C,2 D,2 | E,2 D,2 E,2 G,2 | (^F,2 G,4 F,2) | G,8 | z4 E,2 E,2 | A,2 G,2 F,3 F, | E,4 z4 | %28
w: * sers, un- sers|Her- ren Je- su|Chri\- * *|sti,|der der|rech- te Va- ter|ist,|
 C,2 C,2 F,2 E,2 | D,3 D, G,,2 A,,B,, | C,D,E,F, G,2 E,2 | D,8 | C,4 z4 | z8 | z4 z2 G,2 | %35
w: der der rech- te|Va- ter ist ü- ber|al- les was da Kin- der|hei-|sset||im|
 A,3 G, F,2 C,2 | F,,2 F,,2 z2 G,2 | A,3 G, F,2 E,2 | (D,4- D,E,/F,/ E,D,) | ^C,8 | %40
w: Him- mel und auf|Er- den, im|Him- mel und auf|Er\- * * * * *|den,|
 z2 A,,2 D,2 C,2 | F,4 E,4 | D,4 z2 D,G, | F,2 D,2 A,2 _B,2 | A,3 A, A,4 | z2 ^F,4 G,2 | %46
w: dass er euch|Kraft ge-|be durch den|Reich- thum sei- ner|Herr- lich- keit,|stark zu|
 (E,3 F,/G,/ A,4- | A,4 ^G,4) | A,8 | z8 | z8 | z8 | z8 | z8 | z8 | z2 B,,4 C,2 | %56
w: wer\- * * *||den,|||||||stark zu|
 (A,,3 B,,/C,/ D,4) | G,,4 z2 E,2 | (C,D,C,B,, A,,2) F,,2 | C,4 z4 | z8 | A,2 A,2 ^F,4 | %62
w: wer\- * * *|den durch|sei\- * * * * nen|Geist||an dem in-|
 ^G,3 G, A,2 (A,2- | A,2 ^G,^F, G,4) | A,8 | z8 | z8 | z4 z2 G,2 | A,2 A,A, B,4 | C4 z4 | %70
w: wen- di- gen Men\-||schen,|||und|Chri- stum zu woh-|nen|
 z2 C4 B,2 | C4 G,4 | z2 C2 B,2 B,2 | A,4 G,4 | z2 D,2 E,2 E,E, | ^F,4 G,4 | z4 z2 G,2- | %77
w: durch den|Glau- ben|in eu- rem|Her- zen,|und Chri- stum zu|woh- nen|durch|
 G,2 ^F,2 G,4 | D,4 z2 G,2 | F,2 F,2 E,4 | D,2 D,2 C,2 C,2 | B,,4 A,,2 A,2- | A,2 ^G,2 A,4 | %83
w: * den Glau-|ben in|eu- rem Her-|zen, in eu- rem|Her- zen, durch|* den Glau-|
 E,4 z4 | z2 E,2 D,2 D,2 | (C,D,E,F, G,A,B,G, | A,B, C4 B,2) | C4 z4 | z4 z2 G,2 | F,2 F,2 E,4 | %90
w: ben|in eu- rem|Her\- * * * * * * *||zen,|in|eu- rem Her-|
 D,4 z2 C,2 | B,,2 B,,2 (C,B,,A,,B,, | %92
w: zen, in|eu- rem Her\- * * *|
[Q:1/4=107] C,[Q:1/4=106]D,[Q:1/4=105]E,[Q:1/4=104]F,[Q:1/4=101] G,4- | %93
w: |
[Q:1/4=98] G,2[Q:1/4=97] ^F,[Q:1/4=96]E,[Q:1/4=93] F,4) |[Q:1/4=92] !fermata!G,8 |] %95
w: |zen.|
V:2
 z8 | z8 | z8 | z8 | z8 | z8 | z8 | z8 | z8 | G,8 |[M:4/4] E,4 B,,4 | C,4 D,4 | (E,3 ^F, G,4- | %13
w: |||||||||Ich|beu- ge|mei- ne,|mei\- * *|
 G,4) ^F,4 | G,8 | C,2 C,C, F,4 | E,2 D,4 C,2 | B,,2 A,,2 E,2 F,2 | E,8 | A,,4 z4 | D,2 D,D, G,4 | %21
w: * ne|Knie|ge- gen dem Va-|ter un- sers|Her- ren Je- su|Chri-|sti,|ge- gen dem Va-|
 F,2 E,4 D,2 | C,2 B,,2 A,,2 G,,2 | D,8 | G,,8 | z4 C,2 C,2 | F,2 E,2 D,3 D, | %27
w: ter un- sers|Her- ren Je- su|Chri-|sti,|der der|rech- te Va- ter|
 C,2 A,,B,, C,D,E,F, | G,2 E,2 (A,2 G,2- | G,2 ^F,2) G,4 | z8 | z2 D,E, F,G,A,B, | C2 B,2 A,4 | %33
w: ist ü- ber al- les was da|Kin- der hei\- *|* * sset,||ü- ber al- les was da|Kin- der hei-|
 G,4 z2 G,2 | A,3 G, F,2 C,2 | F,,2 F,,2 z2 G,2 | A,3 G, F,2 E,2 | (D,6 C,2 | _B,,8 | A,,8 | z8 | %41
w: sset im|Him- mel und auf|Er- den, im|Him- mel und auf|Er\- *||den,||
 z8 | z8 | z8 | z8 | z8 | z2 ^C,4 D,2 | B,,3 C,/D,/ E,4) | A,,8 | z2 F,,2 C,2 A,,2 | E,4 D,4 | %51
w: |||||stark zu|wer\- * * *|den,|dass er euch|Kraft ge-|
 C,4 z2 C,F, | E,2 C,2 G,2 A,2 | G,3 G, G,4 | z2 E,4 F,2 | (D,3 E,/F,/ G,4- | G,4 ^F,4) | G,8 | %58
w: be nach dem|Reich- thum sei- ner|Herr- lich- keit,|stark zu|wer\- * * *||den|
 z4 z2 F,2 | (E,F,E,D, C,2) A,,2 | E,4 E,2 E,2 | ^C,4 D,4- | D,4 C,2 C,2 | B,,8 | A,,4 A,2 A,2 | %65
w: durch|sei\- * * * * nen|Geist an dem|in- wen\-|* di- gen|Men-|schen, an dem|
 ^F,4 G,4- | G,4 !courtesy!=F,2 F,2 | E,8 | D,4 z2 G,2 | A,2 A,A, B,4 | C4 z4 | z2 C4 B,2 | %72
w: in- wen\-|* di- gen|Men-|schen, und|Chri- stum zu woh-|nen|durch den|
 C4 G,4 | z2 C2 B,2 B,2 | A,4 G,4 | z2 D,2 E,2 E,E, | ^F,4 G,4 | z4 z2 G,2- | G,2 ^F,2 G,4 | %79
w: Glau- ben|in eu- rem|Her- zen,|und Chri- stum zu|woh- nen|durch|* den Glau-|
 D,4 z2 G,2 | F,2 F,2 E,4 | D,2 D,2 C,2 C,2 | B,,4 A,,2 A,2- | A,2 ^G,2 A,4 | E,4 z4 | %85
w: ben in|eu- rem Her-|zen, in eu- rem|Her- zen, durch|* den Glau-|ben|
 z2 C,2 B,,2 B,,2 | A,,4 G,,2 G,2 | F,2 F,2 (E,D,C,B,, | A,,B,,/C,/ B,,A,, G,,A,,B,,C, | %89
w: in eu- rem|Her- zen, in|eu- rem Her\- * * *||
 D,E,F,D, E,F, G,2- | G,2 ^F,2) G,4 | z8 | z2 C,2 B,,2 B,,2 | D,8 | !fermata!G,,8 |] %95
w: |* * zen,||in eu- rem|Her-|zen.|
V:3
 G,8 | E,4 B,,4 | C,4 D,4 | G,,8 | G,2 G,G, C4 | B,2 A,4 G,2 | F,2 E,2 D,2 C,2 | x2- x4 x2 | C,8 | %9
w: |||||||3||
 G,8 |[M:4/4] E,4 B,,4 | C,4 B,,4 | C,8 | x4- x4 | G,,8 | C,2 C,C, F,4 | E,2 D,4 C,2 | %17
w: |* 6|||4||||
 B,,2 A,,2 E,2 F,2 | x2- x4 x2 | A,,4 A,,2 A,,A,, | D,4 C,2 B,,2- | B,,2 C,4 D,2 | %22
w: |||* * 6|5 * *|
 C,2 B,,2 A,,2 G,,2 | x2- x4 x2 | G,,8 | z4 C,2 C,2 | F,2 E,2 D,4 | C,2 A,,2 C,2 E,2 | %28
w: ||||||
 C,4 F,2 E,2 | x2- x2 G,,4 | C,2 E,2 G,2 E,2 | D,8 | C,4 D,4 | G,,4 C,4 | F,6 C,2 | F,,6 C,2 | %36
w: |4 *|||||||
 F,,4 F,2 E,2 | D,6 C,2 | _B,,8 | A,,8 | A,,4 D,2 C,2 | F,4 E,4 | D,4 z2 D,G, | F,2 D,2 A,2 _B,2 | %44
w: ||||||||
 A,4 A,4 | ^F,6 G,2 | E,2 ^C,4 D,2 | B,,4 E,4 | A,,8 | F,,4 C,2 A,,2 | E,4 D,4 | C,4 z2 C,F, | %52
w: ||* 6 *|7 *|||||
 E,2 C,2 G,2 A,2 | G,3 G, G,4 | z2 E,4 F,2 | D,2 B,,4 C,2 | A,,4 D,4 | G,,4 E,4 | %58
w: ||||7 *||
 C,3 B,, A,,2 F,,2 | C,6 A,,2 | E,4 E,2 E,2 | ^C,4 D,4- | D,4 C,4 | x4- x4 | A,,4 A,2 A,2 | %65
w: ||||4 6|7||
 ^F,4 G,4- | G,4 !courtesy!=F,4 | x4- x4 | D,4 G,4 | F,2 A,2 G,4 | C,2 C,4 B,,2 | C,4 x2- x2 | %72
w: |* 6|7||||* 4|
 C,4 G,4 | A,4 G,4 | D,4 E,4 | D,4 E,4 | D,4 G,,2 G,2- | G,2 ^F,2 G,4 | x2- x2 G,4 | D,4 E,4 | %80
w: ||||||4 *||
 D,4 C,4 | B,,4 A,,4 | x2- x2 A,,4 | x2- x2 A,4 | E,4 D,4 | C,4 B,,4 | A,,4 x2- x2 | F,4 E,2 C,2 | %88
w: ||7 *|4 *||* 6|* 4||
 A,,4 G,,2 B,,2 | D,4 E,4 | x2- x2 C,4 | B,,4 C,2 A,,2 | C,4 B,,4 | x4- x4 | !fermata!G,,8 |] %95
w: * * 6||4 *||* 6|4||

